assets/images/ico_gnb_my.svg

<svg width="17" height="16" viewBox="0 0 17 16" fill="none" xmlns="http://www.w3.org/2000/svg">
<path d="M4.62282 4.91131C4.62282 6.385 5.36817 7.67804 6.49237 8.43321C4.01314 9.37365 2.23984 11.8124 2.23984 14.6669C2.23984 15.0683 2.55478 15.394 2.95261 15.394C3.35044 15.394 3.66538 15.0683 3.66538 14.6669C3.66538 11.8002 5.94448 9.47099 8.73984 9.47099C11.5352 9.47099 13.8143 11.8002 13.8143 14.6669C13.8143 15.0683 14.1292 15.394 14.5271 15.394C14.9249 15.394 15.2398 15.0683 15.2398 14.6669C15.2398 11.8124 13.4665 9.37365 10.9873 8.43321C12.1115 7.67804 12.8569 6.385 12.8569 4.91131C12.8569 2.5936 11.01 0.700049 8.73984 0.700049C6.46968 0.700049 4.62282 2.5936 4.62282 4.91131ZM8.73984 2.15433C10.2212 2.15433 11.4313 3.38952 11.4313 4.91131C11.4313 6.43311 10.2212 7.66829 8.73984 7.66829C7.25852 7.66829 6.04835 6.43311 6.04835 4.91131C6.04835 3.38952 7.25852 2.15433 8.73984 2.15433Z" fill="black" stroke="black" stroke-width="0.2"/>
</svg>

<svg xmlns="http://www.w3.org/2000/svg" width="17" height="16" fill="none"><path fill="#000" stroke="#000" stroke-width=".2" d="M4.623 4.911c0 1.474.745 2.767 1.87 3.522-2.48.94-4.253 3.38-4.253 6.234 0 .401.315.727.713.727a.717.717 0 0 0 .712-.727c0-2.867 2.28-5.196 5.075-5.196 2.795 0 5.074 2.33 5.074 5.196 0 .401.315.727.713.727a.717.717 0 0 0 .713-.727c0-2.855-1.774-5.293-4.253-6.234a4.233 4.233 0 0 0 1.87-3.522C12.857 2.594 11.01.7 8.74.7S4.623 2.594 4.623 4.911ZM8.74 2.154c1.481 0 2.691 1.236 2.691 2.757 0 1.522-1.21 2.757-2.691 2.757-1.481 0-2.692-1.235-2.692-2.757 0-1.521 1.21-2.757 2.692-2.757Z"/></svg>
